svgs/sharp-solid/retweet.svg

<svg xmlns="http://www.w3.org/2000/svg" viewBox="0 0 576 512"><!--! Font Awesome Pro 6.6.0 by @fontawesome - https://fontawesome.com License - https://fontawesome.com/license (Commercial License) Copyright 2024 Fonticons, Inc. --><path d="M96 64L0 160l0 32 64 0 0 192 0 32 32 0 176 0 32 0 0-64-32 0-144 0 0-160 64 0 0-32L96 64zM480 448l96-96 0-32-64 0 0-192 0-32-32 0L304 96l-32 0 0 64 32 0 144 0 0 160-64 0 0 32 96 96z"/></svg>

<svg xmlns="http://www.w3.org/2000/svg" viewBox="0 0 576 512"><!--! Font Awesome Pro 6.4.2 by @fontawesome - https://fontawesome.com License - https://fontawesome.com/license (Commercial License) Copyright 2023 Fonticons, Inc. --><path d="M96 64L0 160v32H64l0 192v32H96 272h32V352H272 128l0-160h64V160L96 64zM480 448l96-96V320H512V128 96H480L304 96l-32 0v64h32l144 0V320H384v32l96 96z"/></svg>
